icon-svg/aqara-u200.svg

<svg xmlns="http://www.w3.org/2000/svg" viewBox="0 0 24 24"><path fill="#44739e" d="M11.968 14.508a.695.695 0 1 0 .6.689.65.65 0 0 0-.6-.689m-2.178 0a.695.695 0 1 0 .6.689.65.65 0 0 0-.6-.689m2.178-2.134a.7.7 0 1 0 .6.689.65.65 0 0 0-.6-.689m-2.178.004a.683.683 0 1 0 .588.676.637.637 0 0 0-.588-.676m2.178-2.138a.695.695 0 1 0 .6.688.65.65 0 0 0-.6-.688m-2.178.009a.683.683 0 1 0 .588.676.637.637 0 0 0-.588-.676m2.178-2.143a.695.695 0 1 0 .6.688.65.65 0 0 0-.6-.688m-2.178.015a.683.683 0 1 0 .588.676.637.637 0 0 0-.588-.676m2.178-2.15a.65.65 0 0 0-.6.689.607.607 0 1 0 1.2 0 .65.65 0 0 0-.6-.689m-2.178.021a.64.64 0 0 0-.588.676.594.594 0 1 0 1.176 0 .637.637 0 0 0-.588-.676m2.166-2.155a.65.65 0 0 0-.6.689.607.607 0 1 0 1.2 0 .65.65 0 0 0-.6-.689M9.781 5.216a.637.637 0 0 0 .587-.676.593.593 0 1 0-1.175 0 .637.637 0 0 0 .588.676m1.183 13.343h-.038a1.06 1.06 0 0 0-.9 1.2 1.1 1.1 0 0 0 .993 1.107h.038a1.06 1.06 0 0 0 .9-1.2 1.1 1.1 0 0 0-.993-1.107m.026-16.057a2.22 2.22 0 0 0-2.314 2.11v10.813a2.22 2.22 0 0 0 2.314 2.106 2.22 2.22 0 0 0 2.314-2.106V4.612a2.22 2.22 0 0 0-2.314-2.11M9.781 3.717a.79.79 0 0 1 .749.823.753.753 0 1 1-1.5 0 .79.79 0 0 1 .751-.823m.008 12.297a.818.818 0 1 1 .74-.814.78.78 0 0 1-.739.811Zm0-2.135a.827.827 0 1 1 .75-.822.79.79 0 0 1-.749.819Zm0-2.128a.827.827 0 1 1 .75-.823.79.79 0 0 1-.749.82Zm0-2.128a.827.827 0 1 1 .75-.823.79.79 0 0 1-.749.82Zm0-2.129a.79.79 0 0 1-.749-.823.753.753 0 1 1 1.5 0 .79.79 0 0 1-.75.82Zm2.176 8.52a.818.818 0 1 1 .739-.814.78.78 0 0 1-.736.811Zm0-2.135a.818.818 0 1 1 .739-.813.78.78 0 0 1-.736.81Zm0-2.133a.818.818 0 1 1 .739-.815.78.78 0 0 1-.736.812Zm0-2.134a.818.818 0 1 1 .739-.815.78.78 0 0 1-.736.812Zm0-2.135a.78.78 0 0 1-.739-.814.743.743 0 1 1 1.478 0 .78.78 0 0 1-.736.811Zm-.012-2.134a.78.78 0 0 1-.739-.814.743.743 0 1 1 1.478 0 .78.78 0 0 1-.736.811Zm1.928 14.431V4.444a2.574 2.574 0 0 0-2.683-2.442h-.38A2.61 2.61 0 0 0 8.1 4.476v14.931a2.73 2.73 0 0 0 2.845 2.59h.495a2.34 2.34 0 0 0 2.441-2.223m-2.818 1.235h-.046a1.25 1.25 0 0 1-1.154-1.247 1.21 1.21 0 0 1 1.055-1.35 1.24 1.24 0 0 1 1.2 1.246 1.21 1.21 0 0 1-1.055 1.351m-.073-3.331a2.375 2.375 0 0 1-2.476-2.253V4.612a2.375 2.375 0 0 1 2.476-2.254 2.376 2.376 0 0 1 2.477 2.254v10.813a2.376 2.376 0 0 1-2.477 2.253m4.668-13.943-.083-.062v16.849l.07-.044c.01 0 .092-.077.162-.8.047-.493.073-1.136.073-1.811V6.216a7.7 7.7 0 0 0-.222-2.481m-2.769-1.688-.607-.045a2.65 2.65 0 0 1 1.807 2.442v15.33a2.42 2.42 0 0 1-1.627 2.223l.227-.013a3.5 3.5 0 0 0 2.794-1.599V3.529a3.34 3.34 0 0 0-2.594-1.482"/></svg>

<?xml version="1.0" encoding="UTF-8"?>
<svg width="24px" fill="#44739e" height="24px" viewBox="0 0 24 24" version="1.1" xmlns="http://www.w3.org/2000/svg" xmlns:xlink="http://www.w3.org/1999/xlink">
            <path d="m 11.978,14.509 a 0.695,0.695 0 1 0 0.6,0.689 0.65,0.65 0 0 0 -0.6,-0.689 z m -2.178,0 a 0.695,0.695 0 1 0 0.6,0.689 0.65,0.65 0 0 0 -0.6,-0.689 z m 2.178,-2.135 a 0.7,0.7 0 1 0 0.6,0.689 0.65,0.65 0 0 0 -0.6,-0.689 z M 9.8,12.378 A 0.683,0.683 0 1 0 10.388,13.054 0.637,0.637 0 0 0 9.8,12.378 Z m 2.178,-2.138 a 0.695,0.695 0 1 0 0.6,0.688 0.65,0.65 0 0 0 -0.6,-0.688 z M 9.8,10.249 A 0.683,0.683 0 1 0 10.388,10.925 0.637,0.637 0 0 0 9.8,10.249 Z m 2.178,-2.144 a 0.695,0.695 0 1 0 0.6,0.688 0.65,0.65 0 0 0 -0.6,-0.688 z M 9.8,8.12 A 0.683,0.683 0 1 0 10.388,8.796 0.637,0.637 0 0 0 9.8,8.12 Z m 2.178,-2.15 a 0.65,0.65 0 0 0 -0.6,0.689 0.607,0.607 0 1 0 1.2,0 0.651,0.651 0 0 0 -0.6,-0.689 z M 9.8,5.991 a 0.638,0.638 0 0 0 -0.588,0.676 0.594,0.594 0 1 0 1.176,0 A 0.637,0.637 0 0 0 9.8,5.991 Z m 2.166,-2.156 a 0.65,0.65 0 0 0 -0.6,0.689 0.607,0.607 0 1 0 1.2,0 0.651,0.651 0 0 0 -0.6,-0.689 z M 9.791,5.214 a 0.637,0.637 0 0 0 0.587,-0.676 0.593,0.593 0 1 0 -1.175,0 0.637,0.637 0 0 0 0.588,0.676 z m 1.183,13.347 h -0.038 a 1.061,1.061 0 0 0 -0.9,1.2 1.1,1.1 0 0 0 0.993,1.107 h 0.038 a 1.061,1.061 0 0 0 0.9,-1.2 1.1,1.1 0 0 0 -0.993,-1.107 z M 11,2.5 A 2.221,2.221 0 0 0 8.685,4.61 V 15.426 A 2.221,2.221 0 0 0 11,17.533 2.221,2.221 0 0 0 13.315,15.426 V 4.61 A 2.221,2.221 0 0 0 11,2.5 Z M 9.791,3.715 a 0.79,0.79 0 0 1 0.749,0.823 0.753,0.753 0 1 1 -1.5,0 0.79,0.79 0 0 1 0.751,-0.823 z m 0.008,12.3 a 0.818,0.818 0 1 1 0.74,-0.814 0.78,0.78 0 0 1 -0.739,0.811 z m 0,-2.135 a 0.827,0.827 0 1 1 0.75,-0.823 0.789,0.789 0 0 1 -0.749,0.82 z m 0,-2.129 a 0.827,0.827 0 1 1 0.75,-0.823 0.789,0.789 0 0 1 -0.749,0.82 z m 0,-2.129 A 0.827,0.827 0 1 1 10.549,8.799 0.789,0.789 0 0 1 9.8,9.619 Z m 0,-2.129 A 0.789,0.789 0 0 1 9.05,6.67 a 0.753,0.753 0 1 1 1.5,0 0.79,0.79 0 0 1 -0.75,0.82 z m 2.176,8.522 a 0.818,0.818 0 1 1 0.74,-0.814 0.78,0.78 0 0 1 -0.737,0.811 z m 0,-2.135 a 0.818,0.818 0 1 1 0.74,-0.814 0.78,0.78 0 0 1 -0.737,0.811 z m 0,-2.134 a 0.818,0.818 0 1 1 0.74,-0.815 0.781,0.781 0 0 1 -0.737,0.812 z m 0,-2.135 a 0.818,0.818 0 1 1 0.74,-0.815 0.781,0.781 0 0 1 -0.737,0.812 z m 0,-2.135 a 0.78,0.78 0 0 1 -0.739,-0.814 0.743,0.743 0 1 1 1.479,0 0.78,0.78 0 0 1 -0.737,0.811 z M 11.963,5.341 a 0.78,0.78 0 0 1 -0.739,-0.814 0.743,0.743 0 1 1 1.479,0 0.78,0.78 0 0 1 -0.737,0.811 z m 1.929,14.435 V 4.442 A 2.575,2.575 0 0 0 11.208,2 h -0.38 A 2.608,2.608 0 0 0 8.109,4.474 V 19.409 A 2.73,2.73 0 0 0 10.955,22 h 0.495 a 2.342,2.342 0 0 0 2.442,-2.224 z m -2.819,1.235 h -0.046 a 1.248,1.248 0 0 1 -1.154,-1.247 1.21,1.21 0 0 1 1.055,-1.35 1.239,1.239 0 0 1 1.2,1.246 1.211,1.211 0 0 1 -1.055,1.351 z M 11,17.68 A 2.376,2.376 0 0 1 8.523,15.426 V 4.61 A 2.376,2.376 0 0 1 11,2.356 2.377,2.377 0 0 1 13.478,4.61 V 15.426 A 2.377,2.377 0 0 1 11,17.68 Z M 15.669,3.733 15.586,3.671 v 16.853 l 0.07,-0.044 c 0.01,0 0.092,-0.077 0.162,-0.8 0.047,-0.493 0.073,-1.136 0.073,-1.811 V 6.215 A 7.687,7.687 0 0 0 15.669,3.733 Z M 12.9,2.045 12.292,2 A 2.65,2.65 0 0 1 14.1,4.442 V 19.776 A 2.425,2.425 0 0 1 12.472,22 L 12.7,21.987 a 3.5,3.5 0 0 0 2.794,-1.6 V 3.527 A 3.336,3.336 0 0 0 12.9,2.045 Z"/>

</svg>
